svg/fluentui-system-icons/ic_fluent_javascript_20_regular.svg

<svg width="20" height="20" viewBox="0 0 20 20" fill="none" xmlns="http://www.w3.org/2000/svg">
<path d="M11.5 9.5C11.5 8.67157 12.1716 8 13 8H14.5C14.7761 8 15 8.22386 15 8.5C15 8.77614 14.7761 9 14.5 9H13C12.7239 9 12.5 9.22386 12.5 9.5V10.5C12.5 10.7761 12.7239 11 13 11H13.5C14.3284 11 15 11.6716 15 12.5V13.5C15 14.3284 14.3284 15 13.5 15H12C11.7239 15 11.5 14.7761 11.5 14.5C11.5 14.2239 11.7239 14 12 14H13.5C13.7761 14 14 13.7761 14 13.5V12.5C14 12.2239 13.7761 12 13.5 12H13C12.1716 12 11.5 11.3284 11.5 10.5V9.5ZM11 8.5C11 8.22386 10.7761 8 10.5 8C10.2239 8 10 8.22386 10 8.5V13.5C10 13.7761 9.77614 14 9.5 14H8.5C8.22386 14 8 14.2239 8 14.5C8 14.7761 8.22386 15 8.5 15H9.5C10.3284 15 11 14.3284 11 13.5V8.5ZM3 6V14C3 15.6569 4.34315 17 6 17H14C15.6569 17 17 15.6569 17 14V6C17 4.34315 15.6569 3 14 3H6C4.34315 3 3 4.34315 3 6ZM6 4H14C15.1046 4 16 4.89543 16 6V14C16 15.1046 15.1046 16 14 16H6C4.89543 16 4 15.1046 4 14V6C4 4.89543 4.89543 4 6 4Z" fill="#212121"/>
</svg>

<svg xmlns="http://www.w3.org/2000/svg" width="20" height="20"><path d="M11.5 9.5A1.5 1.5 0 0 1 13 8h1.5a.5.5 0 0 1 0 1H13a.5.5 0 0 0-.5.5v1a.5.5 0 0 0 .5.5h.5a1.5 1.5 0 0 1 1.5 1.5v1a1.5 1.5 0 0 1-1.5 1.5H12a.5.5 0 0 1 0-1h1.5a.5.5 0 0 0 .5-.5v-1a.5.5 0 0 0-.5-.5H13a1.5 1.5 0 0 1-1.5-1.5v-1Zm-.5-1a.5.5 0 0 0-1 0v5a.5.5 0 0 1-.5.5h-1a.5.5 0 0 0 0 1h1a1.5 1.5 0 0 0 1.5-1.5v-5ZM3 6v8a3 3 0 0 0 3 3h8a3 3 0 0 0 3-3V6a3 3 0 0 0-3-3H6a3 3 0 0 0-3 3Zm3-2h8a2 2 0 0 1 2 2v8a2 2 0 0 1-2 2H6a2 2 0 0 1-2-2V6a2 2 0 0 1 2-2Z"/></svg>
